X:1
T:Title
%%score { ( 1 4 ) | ( 2 3 ) }
L:1/8
Q:1/4=100
M:4/4
K:A
V:1 treble nm="Grand Piano"
V:4 treble 
V:2 bass 
V:3 bass 
V:1
 A2 B>G A2 B2 | c2 z2 z4 | z4 A2 z2 | c2 z2 z4 | z4 z2 .c2 | c2 Bc z2 GF | [Ee]2 [EA]2 [FB]2 cd | %7
 c2 z2 z4 |] %8
V:2
 z2 D2 z4 | [A,E]2 D,-[D,A,A] [G,E]2 [B,G]2 | [C,A,]2 [E,D]->[E,B,D] .[F,A,C]2 [G,B,E]2 | %3
 [A,E]2 B,[A,A] [E,G,E]4 | [C,A,]2 [C,A,]2 [D,A,]2 [D,A,]2 | z4 [F,C]2 z2 | z4 z2 .[E,E]2 | %7
 .[E,A,E]2 z D A,,4 |] %8
V:3
 [A,CE]2 [E,E]->[E,B,E] [F,A,C]2 [E,G,E]2 | z2 .B,2 E,4 | z2 G,2 z4 | z2 D,2 z4 | x8 | %5
 [E,A,E]2 [E,G,D]2 A,2- [E,A,-][D,A,] | [C,A,]2 [C,A,]2 [D,A,]2 A,-[F,A,D] | z2 E,2 z4 |] %8
V:4
 x8 | z C[Fd]c B2 e2 | [EA]2 B>G z C B2 | z C[Fd]c B4 | [Ee]2 [EA]2 [FB]2 F-[Fd] | z4 A4 | x8 | %7
 z C .[EGB]2 [CEA]4 |] %8

